X:140
T:Johnny Cronin's
Z:Kenny
S:https://thesession.org/tunes/2298#setting2298
R:reel
M:4/4
L:1/8
K:Gmaj
G2 FG EGDE | GFGA BcdB | eB B2 dBAF | GBAG EDEF |
G2 FG EGDE | GFGA BcdB | eB B2 dBAF | GBAF G4 :|
Bdd^c d2 d=c | Bd d2 efgd | Bdd^c dBGB | c2 AG FGAc |
Bdd^c d2 d=c | Bd d2 efga | bgaf gfed | cBAG FGAc :|
BGGF G2 Ac | BG G2 Bdgd | BGGF G2 AB | c2 AG FGAc |
BGGF G2 Ac | BG G2 Bdga | bgaf gfed | cBAG FGAc :|

